icon/alternativeto.svg

<?xml version="1.0" encoding="UTF-8"?>
<svg width="105px" height="105px" viewBox="0 0 105 105" version="1.1" xmlns="http://www.w3.org/2000/svg" xmlns:xlink="http://www.w3.org/1999/xlink">
    <!-- Generator: Sketch 48.2 (47327) - http://www.bohemiancoding.com/sketch -->
    <title>Logo</title>
    <desc>Created with Sketch.</desc>
    <defs></defs>
    <g id="Page-1" stroke="none" stroke-width="1" fill="none" fill-rule="evenodd">
        <g id="Logo" fill="#FFFFFF" fill-rule="nonzero">
            <path d="M91.72,47.7 C90.7717574,47.6438228 89.8678651,48.1072591 89.36,48.91 C88.42,48.32 85.87,47.08 84.88,46.57 L84.52,46.39 C84.4624915,46.3655468 84.3975085,46.3655468 84.34,46.39 L84.34,46.33 C84.3452109,46.2567592 84.3452109,46.1832408 84.34,46.11 C85.34,25.53 64.51,9.54 44.34,15.73 C34.5462513,18.8452468 26.8757276,26.5232285 23.77,36.32 C22.9477894,39.3156206 22.5109327,42.4038613 22.47,45.51 L21.71,45.81 L21.16,46.04 C20.16,46.48 19.16,46.95 18.16,47.46 C17.16,47.97 16.16,48.46 15.25,49.09 C15.1180202,49.1716379 15.0667429,49.3382892 15.13,49.48 C15.2060444,49.6299391 15.3851492,49.6954652 15.54,49.63 C16.54,49.17 17.54,48.76 18.54,48.38 C19.54,48 20.59,47.66 21.63,47.38 L21.69,47.38 C22.19,47.23 22.69,47.1 23.2,46.97 L23.98,46.79 L24.07,46.79 L24.77,46.64 C25.82,46.41 26.88,46.27 27.94,46.14 L28.06,46.14 C28.4690892,46.0802397 28.8091565,45.7941798 28.938086,45.4013663 C29.0670155,45.0085528 28.9626118,44.5766084 28.668506,44.2860451 C28.3744001,43.9954818 27.9412224,43.89632 27.55,44.03 C26.55,44.27 25.55,44.53 24.64,44.84 L24.83,44.78 C24.8876539,42.0113928 25.2873518,39.2605312 26.02,36.59 C28.8974616,27.5502723 35.9802723,20.4674616 45.02,17.59 C45.8333333,17.3433333 46.6433333,17.1333333 47.45,16.96 C48.24,16.79 51.4,16.34 47.95,18.27 C42.2161258,21.5667516 37.9323874,26.900006 35.95,33.21 C34.95,36.44 34.56,42.81 35.26,47.7 C35.48,49.23 34.96,49.53 34.01,49.93 C32.01,50.78 28.51,52.32 26.71,54.5 C26.01,55.34 25.71,54.5 25.54,53.9 C25.1899221,52.2537025 24.9758669,50.5813965 24.9,48.9 C24.8925325,48.7533484 24.819689,48.6177759 24.701522,48.5306035 C24.583355,48.4434311 24.432322,48.4138488 24.29,48.45 C23.8,48.57 23.29,48.69 22.83,48.85 C22.6265159,48.9201561 22.4926381,49.1148873 22.5,49.33 C22.78,55.76 24.41,61.74 28.31,61.55 C28.4604298,61.5389979 28.5986705,61.4632208 28.6888621,61.3423257 C28.7790537,61.2214306 28.8123085,61.0673307 28.78,60.92 C28.1702857,60.5908963 27.6932822,60.0608925 27.43,59.42 C26.14,55.56 38.1,50.51 53.43,48.22 C67.51,46.11 79.6,47.07 81.7,50.28 C82.1341589,50.8294353 82.1819774,51.5905456 81.82,52.19 C80.9351362,53.7789279 79.6127723,55.0804672 78.01,55.94 C77.874409,56.0222986 77.7784378,56.1565362 77.7444301,56.3114603 C77.7104224,56.4663843 77.7413455,56.6284767 77.83,56.76 C77.9883165,57.0073392 78.3086422,57.0939138 78.57,56.96 C80.5313942,56.0005676 82.1662604,54.4839683 83.27,52.6 C83.8916522,51.185957 84.2313359,49.6641743 84.27,48.12 C85.27,48.43 87.91,49.49 88.92,49.9 L89,49.9 C88.95796,50.0672298 88.9311835,50.2379299 88.92,50.41 C88.8599083,51.9464466 90.009449,53.2627147 91.54,53.41 C92.2410364,53.4425 92.9259861,53.1934714 93.4424547,52.7183203 C93.9589232,52.2431692 94.2640689,51.5813101 94.29,50.88 C94.3897999,49.3386648 93.255935,47.9930274 91.72,47.83 L91.72,47.7 Z M72,41.2 C72.0145562,41.5844073 71.8668269,41.9572238 71.5929195,42.2273269 C71.3190122,42.4974299 70.9441662,42.6399308 70.56,42.62 C67.1952251,42.3601743 63.81338,42.4204448 60.46,42.8 C60.0709393,42.8315468 59.6868956,42.6956371 59.4042828,42.4263911 C59.1216699,42.1571451 58.9673264,41.7801318 58.98,41.39 L58.98,40.21 C58.9820958,39.912166 59.1893704,39.6551454 59.48,39.59 C63.4491189,38.9278529 67.4965135,38.8806333 71.48,39.45 C71.7756745,39.4998339 71.9891676,39.7602955 71.98,40.06 L72,41.2 Z M79.06,37.85 C78.9248348,38.0587277 78.6608076,38.1425458 78.43,38.05 C69.71,34.74 56.1,36.61 56.1,36.61 C51.4321272,37.0743374 46.8420941,38.1294402 42.44,39.75 C41.9596505,39.9338832 41.4192092,39.8658195 40.9994533,39.5685761 C40.5796974,39.2713327 40.3360459,38.7841536 40.35,38.27 C40.3852235,37.0729709 40.5055269,35.8799619 40.71,34.7 C41.1517552,31.4717524 42.4539345,28.4218206 44.48,25.87 C44.6,25.73 44.72,25.59 44.85,25.46 C44.8709744,25.4224863 44.8980054,25.3886975 44.93,25.36 L44.99,25.29 L45.14,25.13 L45.21,25.06 C51.14,18.86 61.57,18.15 68.89,22.19 C72.5503434,24.2505639 75.5843854,27.2638721 77.67,30.91 C77.99,31.51 80.01,36.18 79.06,37.85 Z" id="Shape"></path>
            <path d="M74.42,30.09 C72.7660508,27.2690724 70.243769,25.0590063 67.23,23.79 C63.8691058,22.3757686 60.209396,21.8190803 56.58,22.17 C55.291036,22.2712549 54.0223115,22.5505762 52.81,23 C52.5677596,23.0696934 52.4127694,23.3059023 52.4452646,23.5558656 C52.4777598,23.8058289 52.6879921,23.9945588 52.94,24 C55.6744096,23.7113626 58.4349724,23.7853363 61.15,24.22 C71.15,26.22 74.35,31.03 74.7,31.22 C74.8,31.27 74.92,31.17 74.87,31.07 C74.7408701,30.7292226 74.5940028,30.3954333 74.43,30.07" id="Shape"></path>
            <path d="M29.7,47.54 C29.8716387,47.7815286 30.1415507,47.9345039 30.4369473,47.9576723 C30.7323439,47.9808407 31.0228048,47.8718161 31.23,47.66 C31.5627061,47.3252135 31.8067267,46.9127843 31.94,46.46 C32.2465335,45.2975859 32.1729431,44.0675736 31.73,42.95 C31.444949,42.2368017 30.9268187,41.6411282 30.26,41.26 C30.1381623,41.1828579 29.990531,41.1576525 29.85,41.19 C29.4397927,41.3273438 29.0876199,41.5985168 28.85,41.96 C28.7903788,42.0346755 28.7660544,42.1315285 28.7833169,42.2255132 C28.8005793,42.3194979 28.8577337,42.4013855 28.94,42.45 C29.7525032,42.878884 30.3236848,43.6564281 30.49,44.56 C30.605348,45.4840315 30.3175434,46.4130211 29.7,47.11 C29.5937997,47.2336615 29.5937997,47.4163385 29.7,47.54" id="Shape"></path>
            <path d="M11,49 C10.1368537,48.9283329 9.28094556,49.2052366 8.62334092,49.7688977 C7.96573629,50.3325589 7.56118662,51.1360475 7.5,52 C7.47057884,53.8620442 8.92023306,55.413351 10.78,55.51 C12.5419633,55.6371195 14.0810109,54.3293738 14.24,52.57 C14.3139762,50.6956634 12.8727073,49.1075986 11,49" id="Shape"></path>
            <path d="M104.69,52.5 C104.69171,28.0580643 87.7518297,6.87963351 63.9065483,1.51206649 C40.0612668,-3.85550054 15.6805762,8.02167977 5.20904391,30.1068611 C-5.26248834,52.1920425 0.97248674,78.5854238 20.22,93.65 L21.22,94.44 C21.56,94.7 21.91,94.95 22.22,95.2 C27.5916318,99.0009122 33.6349224,101.749405 40.03,103.3 L40.18,103.3 L41.07,103.51 L41.34,103.56 L42.18,103.74 L42.51,103.8 L43.33,103.95 L43.65,104.01 C44.19,104.096667 44.73,104.176667 45.27,104.25 L45.59,104.3 L46.2,104.37 L46.82,104.44 L47.4,104.5 L48.07,104.56 L48.62,104.56 L49.34,104.56 L49.85,104.56 L50.68,104.56 L51.1,104.56 L52.35,104.56 C52.8,104.56 53.24,104.56 53.68,104.56 L54.12,104.56 L55.01,104.56 L55.54,104.56 L56.32,104.56 L56.89,104.51 L57.62,104.45 L58.22,104.38 L58.92,104.3 L59.53,104.22 L60.2,104.12 L60.82,104.02 L61.47,103.92 L62.1,103.8 L62.74,103.68 L63.37,103.54 L63.99,103.41 L64.62,103.26 L65.23,103.11 L66,103 L66.58,102.84 L67.23,102.66 L67.8,102.49 L68.44,102.28 C68.6299015,102.230573 68.816865,102.170478 69,102.1 L69.65,101.88 L70.19,101.69 L70.84,101.45 L71.36,101.25 L72,101 L72.5,100.8 L73.16,100.52 L73.65,100.31 L74.31,100.01 L74.78,99.79 L75.44,99.47 L75.89,99.24 L76.55,98.91 L76.99,98.67 C77.22,98.56 77.44,98.44 77.65,98.32 L78.08,98.08 L78.74,97.7 L79.14,97.46 L79.81,97.06 L80.19,96.82 L80.86,96.4 L81.22,96.16 L81.89,95.71 L82.23,95.48 L82.91,95 L83.22,94.77 L83.91,94.26 L84.19,94.05 L84.89,93.51 L85.14,93.3 L85.85,92.73 L86.06,92.54 L86.79,91.93 L86.96,91.78 L87.71,91.1 L87.82,91.01 L88.61,90.26 C98.917555,80.414135 104.739946,66.774345 104.72,52.52 M68.35,70 C68.28,69.42 68.21,68.83 68.12,68.25 C68.03,67.67 67.95,67.09 67.84,66.52 C67.73,65.95 67.64,65.37 67.53,64.8 C67.42,64.23 67.28,63.65 67.14,63.13 C67.0555907,62.7371048 67.2835043,62.3443816 67.6665151,62.2227498 C68.0495259,62.101118 68.4622628,62.2903914 68.62,62.66 C68.84,63.28 68.99,63.84 69.15,64.44 C69.31,65.04 69.45,65.61 69.58,66.2 C69.83,67.39 70.03,68.57 70.22,69.76 C70.46,71.32 70.62,72.89 70.75,74.45 C71.75,74.5 72.82,74.57 73.85,74.67 C76.6431242,74.9565683 79.3983126,75.5364316 82.07,76.4 C82.4099539,76.5249979 82.6013177,76.8858561 82.5140737,77.2373979 C82.4268298,77.5889397 82.0889505,77.8184528 81.73,77.77 L81.68,77.77 C80.34,77.54 79.04,77.22 77.68,77.07 L76.68,76.92 L76.18,76.85 L75.68,76.85 L73.68,76.66 C73.34,76.61 73,76.66 72.68,76.59 L71.68,76.53 L70.94,76.53 C70.94,76.7 70.94,76.87 70.94,77.04 L71.02,78.83 L71.02,80.63 C71.02,81.83 71.02,83.03 71.02,84.23 C71.02,85.43 70.93,86.62 70.89,87.81 C70.85,89 70.72,90.2 70.61,91.39 C70.5506717,91.7850189 70.202504,92.0713774 69.8034613,92.0533561 C69.4044187,92.0353348 69.0834803,91.7187587 69.06,91.32 C69.06,90.14 69.06,88.96 69.12,87.78 C69.18,86.6 69.12,85.41 69.12,84.23 C69.12,83.05 69.12,81.87 69.06,80.7 L69,78.93 L69,77 C69,76.77 69,76.55 69,76.33 L67.66,76.33 L65.66,76.33 C64.98,76.33 64.3,76.39 63.66,76.41 C63.02,76.43 62.3,76.48 61.66,76.54 C60.3,76.63 58.94,76.76 57.59,76.91 C54.88,77.22 52.16,77.61 49.51,78.13 C49.1241093,78.2037774 48.7503173,77.9545827 48.67,77.57 C48.6043365,77.2062818 48.8247325,76.8519197 49.18,76.75 C50.55,76.38 51.89,76.09 53.26,75.82 C54.63,75.55 55.99,75.33 57.37,75.12 C58.05,75.01 58.75,74.94 59.44,74.85 C60.13,74.76 60.82,74.69 61.51,74.63 C62.2,74.57 62.89,74.5 63.59,74.47 C64.29,74.44 64.98,74.37 65.68,74.36 C66.78,74.31 67.88,74.3 68.99,74.36 C68.87,72.89 68.73,71.43 68.55,69.98 M41.85,62.89 C41.35,64.55 40.18,68.55 39.45,71.68 C37.5762888,80.8038311 36.2108519,90.0247027 35.36,99.3 C30.8512917,97.6394497 26.6097258,95.3283185 22.77,92.44 C23.5718979,86.4192319 24.8594286,80.4731813 26.62,74.66 C27.2605111,72.5502944 28.1395234,70.520514 29.24,68.61 C30.1214061,67.3256396 31.3391751,66.3085257 32.76,65.67 L33.02,65.55 L33.45,65.31 L34,65.03 C34.38,64.85 34.75,64.67 35.12,64.51 L35.69,64.26 L36.25,64.03 L37.39,63.59 C38.39,63.22 40.09,62.7 41.15,62.39 C41.7,62.23 41.99,62.39 41.85,62.89 M86.39,76.89 C84.83,71.08 82.72,61.98 76.49,59.89 C69.85,57.63 62.71,57.38 55.81,57.82 C50.8979449,58.1354732 46.0371845,59.0043048 41.32,60.41 C39.23,61.02 32.53,63.59 31.2,64.27 C29.6791325,64.9558267 28.3752589,66.0452702 27.43,67.42 C26.2501452,69.4662065 25.3073926,71.6402412 24.62,73.9 C22.9394847,79.4693413 21.6529738,85.150039 20.77,90.9 C19.6,89.9 18.46,88.9 17.37,87.79 C-2.04066785,68.3859879 -2.12828923,36.9459407 17.1739225,17.4340384 C36.4761342,-2.07786401 67.9152929,-2.32994335 87.5278959,16.8699398 C107.140499,36.069823 107.557029,67.507233 88.46,87.22 C87.9947786,83.7387084 87.3033152,80.2914123 86.39,76.9" id="Shape"></path>
        </g>
    </g>
</svg>

<svg xmlns="http://www.w3.org/2000/svg" width="105" height="105" viewBox="0 0 105 105"><title>Logo</title><g fill="#fff"><path d="M91.72 47.7a2.61 2.61 0 0 0-2.36 1.21c-.94-.59-3.49-1.83-4.48-2.34l-.36-.18a.23.23 0 0 0-.18 0v-.06a2 2 0 0 0 0-.22c1-20.58-19.83-36.57-40-30.38a31.64 31.64 0 0 0-20.57 20.59 36.5 36.5 0 0 0-1.3 9.19l-.76.3-.55.23c-1 .44-2 .91-3 1.42s-2 1-2.91 1.63a.31.31 0 0 0-.12.39.32.32 0 0 0 .41.15c1-.46 2-.87 3-1.25s2.05-.72 3.09-1h.06c.5-.15 1-.28 1.51-.41l.78-.18h.09l.7-.15c1.05-.23 2.11-.37 3.17-.5h.12a1.09 1.09 0 1 0-.51-2.11c-1 .24-2 .5-2.91.81l.19-.06a33.6 33.6 0 0 1 1.19-8.19 29.25 29.25 0 0 1 19-19 30 30 0 0 1 2.43-.63c.79-.17 3.95-.62.5 1.31a26.34 26.34 0 0 0-12 14.94c-1 3.23-1.39 9.6-.69 14.49.22 1.53-.3 1.83-1.25 2.23-2 .85-5.5 2.39-7.3 4.57-.7.84-1 0-1.17-.6a30.7 30.7 0 0 1-.64-5 .49.49 0 0 0-.61-.45c-.49.12-1 .24-1.46.4a.49.49 0 0 0-.33.48c.28 6.43 1.91 12.41 5.81 12.22a.52.52 0 0 0 .47-.63 3 3 0 0 1-1.35-1.5c-1.29-3.86 10.67-8.91 26-11.2 14.08-2.11 26.17-1.15 28.27 2.06.434.55.482 1.31.12 1.91a9.5 9.5 0 0 1-3.81 3.75.58.58 0 0 0-.18.82.57.57 0 0 0 .74.2 11.1 11.1 0 0 0 4.7-4.36 11.9 11.9 0 0 0 1-4.48c1 .31 3.64 1.37 4.65 1.78H89a3 3 0 0 0-.08.51 2.9 2.9 0 0 0 2.62 3 2.63 2.63 0 0 0 2.75-2.53 2.88 2.88 0 0 0-2.57-3.05zM72 41.2a1.37 1.37 0 0 1-1.44 1.42 53.3 53.3 0 0 0-10.1.18 1.37 1.37 0 0 1-1.48-1.41v-1.18a.64.64 0 0 1 .5-.62 39.2 39.2 0 0 1 12-.14.6.6 0 0 1 .5.61zm7.06-3.35a.52.52 0 0 1-.63.2c-8.72-3.31-22.33-1.44-22.33-1.44a55.4 55.4 0 0 0-13.66 3.14 1.54 1.54 0 0 1-2.09-1.48 25 25 0 0 1 .36-3.57 18.16 18.16 0 0 1 3.77-8.83c.12-.14.24-.28.37-.41a.4.4 0 0 1 .08-.1l.06-.07.15-.16.07-.07c5.93-6.2 16.36-6.91 23.68-2.87a23.26 23.26 0 0 1 8.78 8.72c.32.6 2.34 5.27 1.39 6.94"/><path d="M74.42 30.09a15.15 15.15 0 0 0-7.19-6.3 22 22 0 0 0-10.65-1.62 14 14 0 0 0-3.77.83.51.51 0 0 0 .13 1 31.2 31.2 0 0 1 8.21.22c10 2 13.2 6.81 13.55 7 .1.05.22-.05.17-.15a11 11 0 0 0-.44-1M29.7 47.54a1 1 0 0 0 1.53.12 2.84 2.84 0 0 0 .71-1.2 5.63 5.63 0 0 0-.21-3.51 3.4 3.4 0 0 0-1.47-1.69.54.54 0 0 0-.41-.07 1.93 1.93 0 0 0-1 .77.33.33 0 0 0 .09.49 3 3 0 0 1 1.55 2.11 3.24 3.24 0 0 1-.79 2.55.33.33 0 0 0 0 .43M11 49a3.24 3.24 0 0 0-3.5 3 3.46 3.46 0 0 0 3.28 3.51 3.24 3.24 0 0 0 3.46-2.94A3.44 3.44 0 0 0 11 49"/><path d="M104.69 52.5c.002-24.442-16.938-45.62-40.783-50.988S15.68 8.022 5.209 30.107.972 78.585 20.22 93.65l1 .79c.34.26.69.51 1 .76a52.1 52.1 0 0 0 17.81 8.1h.15l.89.21.27.05.84.18.33.06.82.15.32.06q.81.13 1.62.24l.32.05.61.07.62.07.58.06.67.06h8.25l.57-.05.73-.06.6-.07.7-.08.61-.08.67-.1.62-.1.65-.1.63-.12.64-.12.63-.14.62-.13.63-.15.61-.15.77-.11.58-.16.65-.18.57-.17.64-.21q.285-.075.56-.18l.65-.22.54-.19.65-.24.52-.2.64-.25.5-.2.66-.28.49-.21.66-.3.47-.22.66-.32.45-.23.66-.33.44-.24c.23-.11.45-.23.66-.35l.43-.24.66-.38.4-.24.67-.4.38-.24.67-.42.36-.24.67-.45.34-.23.68-.48.31-.23.69-.51.28-.21.7-.54.25-.21.71-.57.21-.19.73-.61.17-.15.75-.68.11-.09.79-.75a52.1 52.1 0 0 0 16.11-37.74M68.35 70c-.07-.58-.14-1.17-.23-1.75s-.17-1.16-.28-1.73-.2-1.15-.31-1.72-.25-1.15-.39-1.67a.78.78 0 0 1 1.48-.47c.22.62.37 1.18.53 1.78s.3 1.17.43 1.76c.25 1.19.45 2.37.64 3.56.24 1.56.4 3.13.53 4.69 1 .05 2.07.12 3.1.22a40 40 0 0 1 8.22 1.73.71.71 0 0 1-.34 1.37h-.05c-1.34-.23-2.64-.55-4-.7l-1-.15-.5-.07h-.5l-2-.19c-.34-.05-.68 0-1-.07l-1-.06h-.74v.51l.08 1.79v5.4c0 1.2-.09 2.39-.13 3.58s-.17 2.39-.28 3.58a.78.78 0 0 1-1.55-.07c0-1.18 0-2.36.06-3.54s0-2.37 0-3.55 0-2.36-.06-3.53L69 78.93v-2.6h-3.34c-.68 0-1.36.06-2 .08s-1.36.07-2 .13c-1.36.09-2.72.22-4.07.37-2.71.31-5.43.7-8.08 1.22a.72.72 0 0 1-.84-.56.72.72 0 0 1 .51-.82c1.37-.37 2.71-.66 4.08-.93s2.73-.49 4.11-.7c.68-.11 1.38-.18 2.07-.27s1.38-.16 2.07-.22 1.38-.13 2.08-.16 1.39-.1 2.09-.11c1.1-.05 2.2-.06 3.31 0-.12-1.47-.26-2.93-.44-4.38m-26.7-7.09c-.5 1.66-1.67 5.66-2.4 8.79a252 252 0 0 0-4.09 27.62 49.3 49.3 0 0 1-12.59-6.86 113 113 0 0 1 3.85-17.78 29 29 0 0 1 2.62-6.05 8.5 8.5 0 0 1 3.52-2.94l.26-.12.43-.24.55-.28c.38-.18.75-.36 1.12-.52l.57-.25.56-.23 1.14-.44c1-.37 2.7-.89 3.76-1.2.55-.16.84 0 .7.5m44.54 14c-1.56-5.81-3.67-14.91-9.9-17-6.64-2.26-13.78-2.51-20.68-2.07a65.4 65.4 0 0 0-14.49 2.59c-2.09.61-8.79 3.18-10.12 3.86a9.13 9.13 0 0 0-3.77 3.15 31 31 0 0 0-2.81 6.48 124 124 0 0 0-3.85 17c-1.17-1-2.31-2-3.4-3.11-19.41-19.404-19.498-50.844-.196-70.356S67.915-2.33 87.528 16.87c19.612 19.2 20.029 50.637.932 70.35a81 81 0 0 0-2.07-10.32"/></g></svg>
